img/faqs/jargon-icon.svg

<?xml version="1.0" encoding="UTF-8"?>
<svg width="113px" height="88px" viewBox="0 0 113 88" version="1.1" xmlns="http://www.w3.org/2000/svg" xmlns:xlink="http://www.w3.org/1999/xlink">
    <!-- Generator: Sketch 51.3 (57544) - http://www.bohemiancoding.com/sketch -->
    <title>jargon-icon</title>
    <desc>Created with Sketch.</desc>
    <defs>
        <polygon id="path-1" points="0.0002 -0.0002 112.827 -0.0002 112.827 87.6658 0.0002 87.6658"></polygon>
    </defs>
    <g id="FAQs-&amp;-Account" stroke="none" stroke-width="1" fill="none" fill-rule="evenodd">
        <g id="TT-FAQs" transform="translate(-218.000000, -1369.000000)">
            <g id="jargon-icon" transform="translate(218.000000, 1369.000000)">
                <mask id="mask-2" fill="white">
                    <use xlink:href="#path-1"></use>
                </mask>
                <g id="Clip-2"></g>
                <path d="M28.2792,66.2417 L71.1132,66.2417 C71.8832,66.2417 72.5842,65.9497 73.1022,65.4727 L73.1942,65.3767 C73.7302,64.8417 74.0592,64.1047 74.0592,63.2957 L74.0592,57.9207 L74.0592,18.8577 C74.0592,18.0407 73.7352,17.3007 73.2062,16.7717 L73.1942,16.7647 C72.6672,16.2357 71.9312,15.9077 71.1132,15.9077 L36.2382,15.9077 L8.0072,15.9077 C7.1932,15.9077 6.4582,16.2397 5.9212,16.7717 L5.9152,16.7717 C5.3852,17.3007 5.0572,18.0407 5.0572,18.8577 L5.0572,63.2957 C5.0572,64.0647 5.3492,64.7627 5.8262,65.2837 L5.9212,65.3767 C6.4582,65.9127 7.1932,66.2417 8.0072,66.2417 L9.7342,66.2417 L9.7342,66.2487 C9.8822,66.2487 10.0362,66.2637 10.1872,66.2937 C11.5552,66.5457 12.4622,67.8567 12.2102,69.2257 L10.3622,79.2097 L26.5642,66.9147 C27.0152,66.4977 27.6182,66.2417 28.2792,66.2417 Z M97.5772,35.9547 C98.9712,35.9547 100.1032,37.0897 100.1032,38.4827 C100.1032,39.8807 98.9712,41.0127 97.5772,41.0127 L79.1162,41.0127 L79.1162,55.3917 L84.5472,55.3917 C85.2092,55.3917 85.8112,55.6457 86.2622,56.0637 L102.4692,68.3607 L100.6182,58.3747 C100.3652,57.0077 101.2712,55.6907 102.6432,55.4387 C102.7942,55.4147 102.9462,55.3987 103.0942,55.3987 L103.0942,55.3917 L104.8232,55.3917 C105.6412,55.3917 106.3762,55.0627 106.9052,54.5337 L106.9052,54.5267 C107.4402,53.9897 107.7712,53.2557 107.7712,52.4417 L107.7712,8.0037 C107.7712,7.1867 107.4452,6.4517 106.9162,5.9227 L106.9052,5.9157 C106.3762,5.3867 105.6412,5.0567 104.8232,5.0567 L41.7172,5.0567 C40.9032,5.0567 40.1672,5.3897 39.6322,5.9227 L39.5362,6.0147 C39.0592,6.5367 38.7662,7.2347 38.7662,8.0037 L38.7662,10.8507 L71.1132,10.8507 C73.3092,10.8507 75.3062,11.7487 76.7592,13.2017 L76.7722,13.2127 C78.2222,14.6697 79.1162,16.6617 79.1162,18.8577 L79.1162,19.5817 L97.5772,19.5817 C98.9712,19.5817 100.1032,20.7177 100.1032,22.1107 C100.1032,23.5077 98.9712,24.6377 97.5772,24.6377 L79.1162,24.6377 L79.1162,35.9547 L97.5772,35.9547 Z M64.1892,29.8547 L14.9272,29.8547 C13.5332,29.8547 12.3992,30.9867 12.3992,32.3837 C12.3992,33.7767 13.5332,34.9077 14.9272,34.9077 L64.1892,34.9077 C65.5862,34.9077 66.7182,33.7767 66.7182,32.3837 C66.7182,30.9867 65.5862,29.8547 64.1892,29.8547 Z M46.6412,46.2287 L14.9242,46.2287 C13.5272,46.2287 12.3952,47.3587 12.3952,48.7537 C12.3952,50.1497 13.5272,51.2807 14.9242,51.2807 L46.6412,51.2807 C48.0382,51.2807 49.1702,50.1497 49.1702,48.7537 C49.1702,47.3587 48.0382,46.2287 46.6412,46.2287 Z M71.1132,71.2997 L29.1112,71.2997 L8.2182,87.1547 C7.1082,87.9927 5.5312,87.7787 4.6902,86.6707 C4.2472,86.0857 4.1002,85.3687 4.2212,84.6957 L6.7212,71.1957 C5.0272,70.9217 3.5112,70.1117 2.3472,68.9517 L2.2002,68.7887 C0.8392,67.3507 0.0002,65.4127 0.0002,63.2957 L0.0002,18.8577 C0.0002,16.6567 0.9032,14.6587 2.3552,13.2057 L2.3472,13.2017 C3.7962,11.7537 5.8002,10.8507 8.0072,10.8507 L33.7092,10.8507 L33.7092,8.0037 C33.7092,5.8867 34.5502,3.9487 35.9102,2.5107 L36.0572,2.3467 C37.5052,0.8987 39.5112,-0.0003 41.7172,-0.0003 L104.8232,-0.0003 C107.0152,-0.0003 109.0122,0.8987 110.4642,2.3447 L110.4792,2.3587 C111.9292,3.8127 112.8272,5.8107 112.8272,8.0037 L112.8272,52.4417 C112.8272,54.6487 111.9292,56.6517 110.4792,58.0997 L110.4772,58.0947 C109.3122,59.2587 107.7952,60.0667 106.1072,60.3457 L108.6122,73.8467 C108.7322,74.5147 108.5832,75.2357 108.1402,75.8197 C107.2972,76.9257 105.7172,77.1437 104.6132,76.3037 L83.7162,60.4477 L79.1162,60.4477 L79.1162,63.2957 C79.1162,65.4997 78.2172,67.5027 76.7692,68.9517 L76.6062,69.0987 C75.1692,70.4637 73.2312,71.2997 71.1132,71.2997 Z" id="Fill-1" fill="#FF5721" mask="url(#mask-2)"></path>
            </g>
        </g>
    </g>
</svg>

<svg height="88" viewBox="0 0 113 88" width="113" xmlns="http://www.w3.org/2000/svg" xmlns:xlink="http://www.w3.org/1999/xlink"><mask id="a" fill="#fff"><path d="m.0002-.0002h112.8268v87.666h-112.8268z" fill="#fff" fill-rule="evenodd"/></mask><path d="m28.2792 66.2417h42.834c.77 0 1.471-.292 1.989-.769l.092-.096c.536-.535.865-1.272.865-2.081v-5.375-39.063c0-.817-.324-1.557-.853-2.086l-.012-.007c-.527-.529-1.263-.857-2.081-.857h-34.875-28.231c-.814 0-1.549.332-2.086.864h-.006c-.53.529-.858 1.269-.858 2.086v44.438c0 .769.292 1.467.769 1.988l.095.093c.537.536 1.272.865 2.086.865h1.727v.007c.148 0 .302.015.453.045 1.368.252 2.275 1.563 2.023 2.932l-1.848 9.984 16.202-12.295c.451-.417 1.054-.673 1.715-.673zm69.298-30.287c1.394 0 2.526 1.135 2.526 2.528 0 1.398-1.132 2.53-2.526 2.53h-18.461v14.379h5.431c.662 0 1.264.254 1.715.672l16.207 12.297-1.851-9.986c-.253-1.367.653-2.684 2.025-2.936.151-.024.303-.04.451-.04v-.007h1.729c.818 0 1.553-.329 2.082-.858v-.007c.535-.537.866-1.271.866-2.085v-44.438c0-.817-.326-1.552-.855-2.081l-.011-.007c-.529-.529-1.264-.859-2.082-.859h-63.106c-.814 0-1.55.333-2.085.866l-.096.092c-.477.522-.77 1.22-.77 1.989v2.847h32.347c2.196 0 4.193.898 5.646 2.351l.013.011c1.45 1.457 2.344 3.449 2.344 5.645v.724h18.461c1.394 0 2.526 1.136 2.526 2.529 0 1.397-1.132 2.527-2.526 2.527h-18.461v11.317zm-33.388-6.1h-49.262c-1.394 0-2.528 1.132-2.528 2.529 0 1.393 1.134 2.524 2.528 2.524h49.262c1.397 0 2.529-1.131 2.529-2.524 0-1.397-1.132-2.529-2.529-2.529zm-17.548 16.374h-31.717c-1.397 0-2.529 1.13-2.529 2.525 0 1.396 1.132 2.527 2.529 2.527h31.717c1.397 0 2.529-1.131 2.529-2.527 0-1.395-1.132-2.525-2.529-2.525zm24.472 25.071h-42.002l-20.893 15.855c-1.11.838-2.687.624-3.528-.484-.443-.585-.59-1.302-.469-1.975l2.5-13.5c-1.694-.274-3.21-1.084-4.374-2.244l-.147-.163c-1.361-1.438-2.2-3.376-2.2-5.493v-44.438c0-2.201.903-4.199 2.355-5.652l-.008-.004c1.449-1.448 3.453-2.351 5.66-2.351h25.702v-2.847c0-2.117.841-4.055 2.201-5.493l.147-.164c1.448-1.448 3.454-2.347 5.66-2.347h63.106c2.192 0 4.189.899 5.641 2.345l.015.014c1.45 1.454 2.348 3.452 2.348 5.645v44.438c0 2.207-.898 4.21-2.348 5.658l-.002-.005c-1.165 1.164-2.682 1.972-4.37 2.251l2.505 13.501c.12.668-.029 1.389-.472 1.973-.843 1.106-2.423 1.324-3.527.484l-20.897-15.856h-4.6v2.848c0 2.204-.899 4.207-2.347 5.656l-.163.147c-1.437 1.365-3.375 2.201-5.493 2.201z" fill="#ff5721" fill-rule="evenodd" mask="url(#a)"/></svg>
